rospo-icon-theme-classic-common/22x22/apps/com.github.rickybas.date-countdown.svg

<svg height="22" viewBox="0 0 22 22" width="22" xmlns="http://www.w3.org/2000/svg"><path d="m11 1.5v9.5h-9.9746094a10 10 0 0 0 -.0253906.5 10 10 0 0 0 10 10 10 10 0 0 0 10-10 10 10 0 0 0 -10-10z" opacity=".2"/><path d="m10.5 1c-.828427 0-1.5.6715729-1.5 1.5s.671573 1.5 1.5 1.5c.216218 0 .341623-.0091793.5-.0136719v7.0136719h-7.0136719c.0044926-.158377.0136719-.283782.0136719-.5 0-.828427-.6715729-1.5-1.5-1.5s-1.5.671573-1.5 1.5c0 .216218.00918.341623.013672.5h-.013672a10 10 0 0 0 10 10 10 10 0 0 0 10-10 10 10 0 0 0 -10-10v .013672c-.158377-.0044927-.283782-.013672-.5-.013672z" fill="#4c91d9"/><circle cx="11" cy="11.5" opacity=".2" r="7"/><circle cx="11" cy="11" fill="#fff" r="7"/><path d="m10.5 1c-.828427 0-1.5.6715729-1.5 1.5 0 .085501.01165.1684069.02539.25.1194-.708974.731684-1.25 1.47461-1.25.216218 0 .341623.00918.5.013672v-.013672c5.439199.00415 9.877627 4.3549343 9.990234 9.792969.004687-.097603.007942-.19527.009766-.292969 0-5.5228475-4.477153-10-10-10v .013672c-.158377-.0044927-.283782-.013672-.5-.013672zm-8 8c-.8284271 0-1.5.671573-1.5 1.5 0 .170621.0071.276184.011719.394531.0550523-.778309.6959596-1.394531 1.488281-1.394531s1.4332287.616222 1.4882812 1.394531c.0046185-.118347.0117188-.22391.0117188-.394531 0-.828427-.6715729-1.5-1.5-1.5zm1.5 2c0 .216218-.00918.341623-.013672.5z" fill="#fff" opacity=".2"/></svg>

<svg xmlns="http://www.w3.org/2000/svg" width="22" height="22" version="1.1" viewBox="0 0 22 22">
 <path style="opacity:0.2" d="M 11,1.5 11,11 1.0253906,11 A 10,10 0 0 0 1,11.5 a 10,10 0 0 0 10,10 10,10 0 0 0 10,-10 10,10 0 0 0 -10,-10 z"/>
 <path style="fill:#4c91d9" d="M 10.5,1 C 9.671573,1 9,1.6715729 9,2.5 9,3.3284271 9.671573,4 10.5,4 10.716218,4 10.841623,3.9908207 11,3.9863281 L 11,11 3.9863281,11 C 3.9908207,10.841623 4,10.716218 4,10.5 4,9.671573 3.3284271,9 2.5,9 1.6715729,9 1,9.671573 1,10.5 1,10.716218 1.00918,10.841623 1.013672,11 L 1,11 A 10,10 0 0 0 11,21 10,10 0 0 0 21,11 10,10 0 0 0 11,1 l 0,0.013672 C 10.841623,1.0091793 10.716218,1 10.5,1 Z"/>
 <circle style="opacity:0.2" cx="11" cy="11.5" r="7"/>
 <circle style="fill:#ffffff" cx="11" cy="11" r="7"/>
 <path style="opacity:0.2;fill:#ffffff" d="M 10.5,1 C 9.671573,1 9,1.6715729 9,2.5 9,2.585501 9.01165,2.6684069 9.02539,2.75 9.14479,2.041026 9.757074,1.5 10.5,1.5 c 0.216218,0 0.341623,0.00918 0.5,0.013672 L 11,1.5 c 5.439199,0.00415 9.877627,4.3549343 9.990234,9.792969 C 20.994921,11.195366 20.998176,11.097699 21,11 21,5.4771525 16.522847,1 11,1 l 0,0.013672 C 10.841623,1.0091793 10.716218,1 10.5,1 Z m -8,8 C 1.6715729,9 1,9.671573 1,10.5 1,10.670621 1.0071,10.776184 1.011719,10.894531 1.0667713,10.116222 1.7076786,9.5 2.5,9.5 3.2923214,9.5 3.9332287,10.116222 3.9882812,10.894531 3.9928997,10.776184 4,10.670621 4,10.5 4,9.671573 3.3284271,9 2.5,9 Z M 4,11 c 0,0.216218 -0.00918,0.341623 -0.013672,0.5 z"/>
</svg>
